X: 17334
T: Higgin's
R: hornpipe
M: 4/4
K: Dmajor
AF|DF AF DG BG|FA de fd AF|GB dG FA df|ed cB AG FE|
DF AF DG BG|FA de fd AF|GB eg fe dc|ed dc d2 BG|
~A2Ad BA BG|FA de fd AF|G2 ef ge fd|ed cB AG FE|
DF AF DG Bd|FA de fd AF|GB eg fe dc|ed dc d3 f|
eA AG A2 fd|eA AG A2 ef|ge fd ed cd|ed cB AG FE|
DF AF DG BG|FA de fd AF|GB eg fe dc|ed dc dgfd|
eA AG A2 fd|eA AG A2 ef|ge (3fed ed cd|(3gfe (3dcB AG FG|
~A2AD BA BG|FA de fd AF|GB eg fe dc|ed dc d2|

